X: 14648
T: Gan Ainm
R: hornpipe
M: 4/4
K: Gmajor
|:d2|g>d B<d G>Bd>c|(3F^EF A>c =e2A>G|(3FAd f>e (3ded (3cBA|G2B>G D2d2|
g>d B<d G>Bd>c|(3F^EF A>c =e2D>C|(3B,DG (3Bdg (3fed (3cBA|G2D2 G2:|
|:D>C|(3B,DG B>G (3DGB d>B|(3cdc A>F D2A>G|(3FAF d>A f>dA>F|G2g>f e2d2|
(3gfg B>d G>Bd>c|(3F^EF A>c =e2D>C|(3B,DG (3Bdg (3fed (3cBA|1 G2D2G2:|2 G2g2G2||

